assets/svg/1F629.svg

<svg xmlns="http://www.w3.org/2000/svg" viewBox="0 0 64 64" enable-background="new 0 0 64 64"><circle fill="#fbb041" cx="31.98" cy="31.978" r="31.98"/><g opacity=".987"><path fill="#e79d3c" d="m15.221 41.23c-5.666-12.158-5.923-25.24-.796-36.06-8.684 5.715-14.425 15.538-14.425 26.712 0 17.664 14.318 31.978 31.98 31.978.316 0 .625-.039.937-.047-7.334-6.169-13.509-13.595-17.696-22.581"/></g><g fill="#633d19"><path d="m52.09 22.587c1.462-2.796-3.951-1.635-7.285-3.381-3.332-1.744-5.467-6.855-6.931-4.059-1.463 2.794.729 7.793 4.062 9.539 3.334 1.745 8.689.698 10.154-2.099"/><path d="m13.244 22.587c-1.461-2.796 3.952-1.635 7.285-3.381 3.332-1.744 5.467-6.855 6.93-4.059 1.463 2.794-.729 7.793-4.062 9.539-3.334 1.745-8.688.698-10.153-2.099"/><path d="m50.963 47.52c0 7.468-10.08-.902-18.98-.902-8.903 0-18.983 8.37-18.983.902 0-7.467 10.08-15.539 18.983-15.539 8.9 0 18.98 8.07 18.98 15.539"/></g><path fill="#fff" d="m45.605 39.659c-3.224-3.816-8.629-6.741-13.623-6.741-4.997 0-10.402 2.924-13.625 6.741h27.25"/><g fill="#633d19"><path d="m54.59 12.675c-5.01-2.123-9.378-5.214-13.347-9.446-.83-.883-2.315-.531-2.797.581-.292.675-.162 1.426.34 1.961 4.234 4.517 8.907 7.818 14.29 10.1.233.099.475.15.716.15.845 0 1.611-.647 1.785-1.507.162-.796-.226-1.519-.987-1.841"/><path d="m9.669 12.675c5.01-2.123 9.377-5.214 13.347-9.446.829-.883 2.314-.531 2.796.581.292.675.162 1.426-.34 1.961-4.234 4.517-8.907 7.818-14.291 10.1-.233.099-.474.15-.715.15-.845 0-1.612-.647-1.786-1.507-.16-.796.227-1.519.989-1.841"/></g></svg>

<?xml version="1.0" encoding="UTF-8" standalone="no"?>
<!-- Generator: Adobe Illustrator 16.0.0, SVG Export Plug-In . SVG Version: 6.00 Build 0)  -->

<svg
   xmlns:dc="http://purl.org/dc/elements/1.1/"
   xmlns:cc="http://creativecommons.org/ns#"
   xmlns:rdf="http://www.w3.org/1999/02/22-rdf-syntax-ns#"
   xmlns:svg="http://www.w3.org/2000/svg"
   xmlns="http://www.w3.org/2000/svg"
   xmlns:sodipodi="http://sodipodi.sourceforge.net/DTD/sodipodi-0.dtd"
   xmlns:inkscape="http://www.inkscape.org/namespaces/inkscape"
   version="1.1"
   id="Layer_1"
   x="0px"
   y="0px"
   width="64px"
   height="64px"
   viewBox="0 0 64 64"
   enable-background="new 0 0 64 64"
   xml:space="preserve"
   inkscape:version="0.48.5 r10040"
   sodipodi:docname="1F629.svg"
   inkscape:export-filename="D:\TESTINGEMOJI\SVGTEST\1F629.png"
   inkscape:export-xdpi="90"
   inkscape:export-ydpi="90"><metadata
   id="metadata6531"><rdf:RDF><cc:Work
       rdf:about=""><dc:format>image/svg+xml</dc:format><dc:type
         rdf:resource="http://purl.org/dc/dcmitype/StillImage" /><dc:title></dc:title></cc:Work></rdf:RDF></metadata><defs
   id="defs6529" /><sodipodi:namedview
   pagecolor="#ffffff"
   bordercolor="#666666"
   borderopacity="1"
   objecttolerance="10"
   gridtolerance="10"
   guidetolerance="10"
   inkscape:pageopacity="0"
   inkscape:pageshadow="2"
   inkscape:window-width="640"
   inkscape:window-height="480"
   id="namedview6527"
   showgrid="false"
   inkscape:zoom="3.6875"
   inkscape:cx="32"
   inkscape:cy="32"
   inkscape:window-x="659"
   inkscape:window-y="292"
   inkscape:window-maximized="0"
   inkscape:current-layer="Layer_1" />
<g
   id="g6499">
	<g
   id="g6501">
		<g
   id="g6503">
			<circle
   fill="#FBB041"
   cx="31.98"
   cy="31.978"
   r="31.98"
   id="circle6505" />
		</g>
	</g>
	<g
   opacity="0.9866"
   id="g6507">
		<g
   id="g6509">
			<g
   id="g6511">
				<path
   fill="#E79D3C"
   d="M15.221,41.225C9.555,29.067,9.298,15.981,14.425,5.163C5.741,10.878,0,20.701,0,31.875      c0,17.664,14.318,31.978,31.98,31.978c0.316,0,0.625-0.039,0.937-0.047C25.583,57.637,19.408,50.211,15.221,41.225z"
   id="path6513" />
			</g>
		</g>
	</g>
	<path
   fill="#633D19"
   d="M52.093,22.587c1.462-2.796-3.951-1.635-7.285-3.381c-3.332-1.744-5.467-6.855-6.931-4.059   c-1.463,2.794,0.729,7.793,4.062,9.539C45.273,26.431,50.628,25.384,52.093,22.587z"
   id="path6515" />
	<path
   fill="#633D19"
   d="M13.244,22.587c-1.461-2.796,3.952-1.635,7.285-3.381c3.332-1.744,5.467-6.855,6.93-4.059   c1.463,2.794-0.729,7.793-4.062,9.539C20.063,26.431,14.709,25.384,13.244,22.587z"
   id="path6517" />
	<path
   fill="#633D19"
   d="M50.963,47.517c0,7.468-10.08-0.902-18.98-0.902c-8.903,0-18.983,8.37-18.983,0.902   c0-7.467,10.08-15.539,18.983-15.539C40.883,31.978,50.963,40.05,50.963,47.517z"
   id="path6519" />
	<path
   fill="#FFFFFF"
   d="M45.605,39.659c-3.224-3.816-8.629-6.741-13.623-6.741c-4.997,0-10.402,2.924-13.625,6.741H45.605z"
   id="path6521" />
	<path
   fill="#633D19"
   d="M54.594,12.675c-5.013-2.123-9.378-5.214-13.347-9.446c-0.83-0.883-2.315-0.531-2.797,0.581   c-0.292,0.675-0.162,1.426,0.34,1.961c4.234,4.517,8.907,7.818,14.29,10.102c0.233,0.099,0.475,0.15,0.716,0.15   c0.845,0,1.611-0.647,1.785-1.507C55.743,13.72,55.355,12.997,54.594,12.675z"
   id="path6523" />
	<path
   fill="#633D19"
   d="M9.669,12.675c5.012-2.123,9.377-5.214,13.347-9.446c0.829-0.883,2.314-0.531,2.796,0.581   c0.292,0.675,0.162,1.426-0.34,1.961c-4.234,4.517-8.907,7.818-14.291,10.102c-0.233,0.099-0.474,0.15-0.715,0.15   c-0.845,0-1.612-0.647-1.786-1.507C8.52,13.72,8.907,12.997,9.669,12.675z"
   id="path6525" />
</g>
</svg>
